static/img/general/ic-facebook.svg

<svg width="26" height="25" viewBox="0 0 26 25" fill="none" xmlns="http://www.w3.org/2000/svg">
<path d="M22.0442 0H4.36841C2.34929 0 0.706299 1.64299 0.706299 3.66211V21.3379C0.706299 23.357 2.34929 25 4.36841 25H11.7415V16.1621H8.81177V11.7676H11.7415V8.78906C11.7415 6.36578 13.7127 4.39453 16.136 4.39453H20.5793V8.78906H16.136V11.7676H20.5793L19.8469 16.1621H16.136V25H22.0442C24.0633 25 25.7063 23.357 25.7063 21.3379V3.66211C25.7063 1.64299 24.0633 0 22.0442 0Z" fill="white"/>
</svg>

<svg width="26" height="25" viewBox="0 0 26 25" fill="none" xmlns="http://www.w3.org/2000/svg"><path d="M22.044 0H4.368A3.666 3.666 0 0 0 .706 3.662v17.676A3.666 3.666 0 0 0 4.368 25h7.373v-8.838h-2.93v-4.394h2.93V8.789a4.4 4.4 0 0 1 4.395-4.394h4.443v4.394h-4.443v2.979h4.443l-.732 4.394h-3.711V25h5.908a3.666 3.666 0 0 0 3.662-3.662V3.662A3.666 3.666 0 0 0 22.044 0z" fill="#fff"/></svg>
